ui/StatusQ/src/assets/img/icons/network/Network=Status-test.svg

<svg fill="none" height="120" viewBox="0 0 120 120" width="120" xmlns="http://www.w3.org/2000/svg" xmlns:xlink="http://www.w3.org/1999/xlink"><clipPath id="a"><rect height="120" rx="60" width="120"/></clipPath><g clip-path="url(#a)"><rect fill="#858ccc" height="120" rx="60" width="120"/><path clip-rule="evenodd" d="m75.0569 32.9668c-.7181 1.0205-1.3336 2.1057-1.8304 3.2558-.2375.5507-.4589 1.0852-.6479 1.6089-.6803 1.8304-1.1068 3.4987-1.5333 5.1725l-.0196.076c-.5441 2.1182-1.0893 4.2404-2.1617 6.7-.4968 1.1446-1.1069 2.2461-1.8196 3.2773-.027.0432-.0593.0864-.0917.1242-.0214.0319-.045.0639-.0664.0928l-.0002.0003-.0007.001c-.0108.0145-.021.0283-.0299.0409 9.5674 2.7158 20.2632-.8909 24.1452-9.7402 2.3865-5.4316 1.0583-12.2346-4.3301-14.5833-4.3356-1.8897-8.5902-.3401-11.6083 3.9738zm-52.7394 27.0982c.405-1.1825.9287-2.3163 1.5658-3.3907.3078-.5184.6101-1.0043.9233-1.4686 1.0852-1.6252 2.1867-2.948 3.2935-4.2762l.1032-.1244c1.3804-1.6645 2.7648-3.3339 4.1082-5.6149.6371-1.0745 1.1716-2.2137 1.5873-3.3907.0081-.0243.0162-.05.0243-.0756l.0001-.0001c.008-.0256.0161-.0512.0242-.0755.0162-.0594.0324-.1134.0486-.1566 7.8073 6.1605 11.1494 16.9427 6.2577 25.2683-3.0019 5.1184-9.292 8.0286-14.3511 5.0374-4.071-2.4026-5.3074-6.7598-3.5851-11.7324zm73.3077 20.7613c-10.3261 0-18.6963-8.3703-18.6963-18.6964h-10.9194c0 16.3567 13.259 29.6157 29.6157 29.6157zm-35.6469-18.6964c0 16.3567-13.259 29.6157-29.6158 29.6157v-10.9193c10.3262 0 18.6964-8.3703 18.6964-18.6964zm-.0072-.0047v-33.0539h-10.9193v33.0539z" fill="#fff" fill-rule="evenodd"/></g></svg>

<svg width="120" height="120" viewBox="0 0 120 120" fill="none" xmlns="http://www.w3.org/2000/svg">
<g clip-path="url(#clip0_7916_22473)">
<rect width="120" height="120" rx="60" fill="#858CCC"/>
<path fill-rule="evenodd" clip-rule="evenodd" d="M75.0569 32.9668C74.3388 33.9873 73.7233 35.0725 73.2265 36.2226C72.989 36.7733 72.7676 37.3078 72.5786 37.8315C71.8983 39.6619 71.4718 41.3302 71.0453 43.004L71.0257 43.08C70.4816 45.1982 69.9364 47.3204 68.864 49.78C68.3672 50.9246 67.7571 52.0261 67.0444 53.0573C67.0174 53.1005 66.9851 53.1437 66.9527 53.1815C66.9313 53.2134 66.9077 53.2454 66.8863 53.2743L66.8861 53.2746L66.8854 53.2756C66.8746 53.2901 66.8644 53.3039 66.8555 53.3165C76.4229 56.0323 87.1187 52.4256 91.0007 43.5763C93.3872 38.1447 92.059 31.3417 86.6706 28.993C82.335 27.1033 78.0804 28.6529 75.0623 32.9668H75.0569ZM22.3175 60.065C22.7225 58.8825 23.2462 57.7487 23.8833 56.6743C24.1911 56.1559 24.4934 55.67 24.8066 55.2057C25.8918 53.5805 26.9933 52.2577 28.1001 50.9295L28.2033 50.8051C29.5837 49.1406 30.9681 47.4712 32.3115 45.1902C32.9486 44.1157 33.4831 42.9765 33.8988 41.7995C33.9069 41.7752 33.915 41.7495 33.9231 41.7239L33.9232 41.7238C33.9312 41.6982 33.9393 41.6726 33.9474 41.6483C33.9636 41.5889 33.9798 41.5349 33.996 41.4917C41.8033 47.6522 45.1454 58.4344 40.2537 66.76C37.2518 71.8784 30.9617 74.7886 25.9026 71.7974C21.8316 69.3948 20.5952 65.0376 22.3175 60.065ZM95.6252 80.8263C85.2991 80.8263 76.9289 72.456 76.9289 62.1299H66.0095C66.0095 78.4866 79.2685 91.7456 95.6252 91.7456V80.8263ZM59.9783 62.1299C59.9783 78.4866 46.7193 91.7456 30.3625 91.7456V80.8263C40.6887 80.8263 49.0589 72.456 49.0589 62.1299H59.9783ZM59.9711 62.1252V29.0713H49.0518V62.1252H59.9711Z" fill="white"/>
</g>
<defs>
<clipPath id="clip0_7916_22473">
<rect width="120" height="120" rx="60" fill="white"/>
</clipPath>
</defs>
</svg>
